icons/Shield.svg

<svg width="24" height="24" viewBox="0 0 24 24" fill="none" xmlns="http://www.w3.org/2000/svg">
<path fill-rule="evenodd" clip-rule="evenodd" d="M11.2445,2.68583c0.4938,-0.14108 1.0172,-0.14108 1.511,0l5,1.42859c1.1806,0.33731 1.9945,1.41637 1.9945,2.64419v8.01929c0,0.8439 -0.3874,1.641 -1.051,2.1624l-5,3.9286c-0.9972,0.7835 -2.4008,0.7835 -3.398,0l-5.00001,-3.9286c-0.66355,-0.5214 -1.05099,-1.3185 -1.05099,-2.1624v-8.01929c0,-1.22782 0.81393,-2.30688 1.99451,-2.64419zM12.3434,4.12811c-0.2244,-0.06413 -0.4624,-0.06413 -0.6868,0l-5.00001,1.4286c-0.53662,0.15332 -0.90659,0.6438 -0.90659,1.2019v8.01929c0,0.3836 0.17611,0.7459 0.47772,0.9829l4.99998,3.9286c0.4533,0.3561 1.0913,0.3561 1.5446,0l5,-3.9286c0.3016,-0.237 0.4777,-0.5993 0.4777,-0.9829v-8.01929c0,-0.5581 -0.37,-1.04858 -0.9066,-1.2019z" fill="#002B51"/>
</svg>

<svg width="24" height="24" viewBox="0 0 24 24" fill="none" xmlns="http://www.w3.org/2000/svg">
<path fill-rule="evenodd" clip-rule="evenodd" d="M11.2445 2.68583C11.7383 2.54475 12.2617 2.54475 12.7555 2.68583L17.7555 4.11442C18.9361 4.45173 19.75 5.53079 19.75 6.75861V14.7779C19.75 15.6218 19.3626 16.4189 18.699 16.9403L13.699 20.8689C12.7018 21.6524 11.2982 21.6524 10.301 20.8689L5.30099 16.9403C4.63744 16.4189 4.25 15.6218 4.25 14.7779V6.75861C4.25 5.53079 5.06393 4.45173 6.24451 4.11442L11.2445 2.68583ZM12.3434 4.12811C12.119 4.06398 11.881 4.06398 11.6566 4.12811L6.65659 5.55671C6.11997 5.71003 5.75 6.20051 5.75 6.75861V14.7779C5.75 15.1615 5.92611 15.5238 6.22772 15.7608L11.2277 19.6894C11.681 20.0455 12.319 20.0455 12.7723 19.6894L17.7723 15.7608C18.0739 15.5238 18.25 15.1615 18.25 14.7779V6.75861C18.25 6.20051 17.88 5.71003 17.3434 5.55671L12.3434 4.12811Z" fill="#002B51"/>
</svg>
